icons/svg/thumbs-up.svg

<svg width="24" height="24" viewBox="0 0 24 24" fill="none" xmlns="http://www.w3.org/2000/svg">
<rect x="3.25" y="7.20093" width="4.2" height="13.2957" rx="1.5" stroke="currentColor" stroke-width="1.5" stroke-linecap="round" stroke-linejoin="round"/>
<path d="M7.44995 12.5526H6.69995C6.69995 12.9668 7.03574 13.3026 7.44995 13.3026V12.5526ZM7.44995 9.52553L6.8234 9.1133C6.74287 9.2357 6.69995 9.37901 6.69995 9.52553H7.44995ZM7.44997 12.5526H8.19997C8.19997 12.1384 7.86419 11.8026 7.44997 11.8026V12.5526ZM19.7354 18.6537L19.0117 18.4566L19.7354 18.6537ZM21.6934 11.466L20.9697 11.2688V11.2688L21.6934 11.466ZM15.1863 8.30888H14.4363C14.4363 8.72309 14.772 9.05888 15.1863 9.05888V8.30888ZM11.4797 3.40072L12.1062 3.81295L12.1062 3.81295L11.4797 3.40072ZM8.19995 12.5526V9.52553H6.69995V12.5526H8.19995ZM7.44997 11.8026H7.44995V13.3026H7.44997V11.8026ZM8.19997 17.4966V12.5526H6.69997V17.4966H8.19997ZM10.45 19.7466C9.20733 19.7466 8.19997 18.7393 8.19997 17.4966H6.69997C6.69997 19.5677 8.3789 21.2466 10.45 21.2466V19.7466ZM17.3233 19.7466H10.45V21.2466H17.3233V19.7466ZM19.0117 18.4566C18.8043 19.2182 18.1126 19.7466 17.3233 19.7466V21.2466C18.7892 21.2466 20.0737 20.2652 20.459 18.8508L19.0117 18.4566ZM20.9697 11.2688L19.0117 18.4566L20.459 18.8508L22.417 11.6631L20.9697 11.2688ZM19.2812 9.05888C20.4349 9.05888 21.2729 10.1557 20.9697 11.2688L22.417 11.6631C22.9801 9.59584 21.4238 7.55888 19.2812 7.55888V9.05888ZM15.1863 9.05888H19.2812V7.55888H15.1863V9.05888ZM14.4363 7.0874V8.30888H15.9363V7.0874H14.4363ZM14.4363 7.0869V7.0874H15.9363V7.0869H14.4363ZM14.4363 4.5V7.0869H15.9363V4.5H14.4363ZM13.1863 3.25C13.8766 3.25 14.4363 3.80964 14.4363 4.5H15.9363C15.9363 2.98122 14.705 1.75 13.1863 1.75V3.25ZM13.1505 3.25H13.1863V1.75H13.1505V3.25ZM12.1062 3.81295C12.3374 3.46155 12.7298 3.25 13.1505 3.25V1.75C12.2251 1.75 11.3618 2.21542 10.8531 2.98849L12.1062 3.81295ZM8.0765 9.93776L12.1062 3.81295L10.8531 2.98849L6.8234 9.1133L8.0765 9.93776Z" fill="currentColor"/>
</svg>

<svg xmlns="http://www.w3.org/2000/svg" width="24" height="24" fill="none" viewBox="0 0 24 24"><rect width="4.2" height="13.296" x="3.25" y="7.201" stroke="currentColor" stroke-linecap="round" stroke-linejoin="round" stroke-width="1.5" rx="1.5"/><path fill="currentColor" d="M7.45 12.553H6.7c0 .414.336.75.75.75zm0-3.027-.627-.413a.75.75 0 0 0-.123.413zm0 3.027h.75a.75.75 0 0 0-.75-.75zm12.285 6.1-.723-.196zm1.958-7.187-.723-.197zm-6.507-3.157h-.75c0 .414.336.75.75.75zM11.48 3.4l.626.412zM8.2 12.553V9.526H6.7v3.027zm-.75-.75v1.5zm.75 5.694v-4.944H6.7v4.944zm2.25 2.25a2.25 2.25 0 0 1-2.25-2.25H6.7a3.75 3.75 0 0 0 3.75 3.75zm6.873 0H10.45v1.5h6.873zm1.689-1.29a1.75 1.75 0 0 1-1.689 1.29v1.5a3.25 3.25 0 0 0 3.136-2.396zm1.958-7.188-1.958 7.188 1.447.394 1.958-7.188zm-1.689-2.21a1.75 1.75 0 0 1 1.689 2.21l1.447.394a3.25 3.25 0 0 0-3.136-4.104zm-4.095 0h4.095v-1.5h-4.095zm-.75-1.972V8.31h1.5V7.087zm0 0h1.5zm0-2.587v2.587h1.5V4.5zm-1.25-1.25c.69 0 1.25.56 1.25 1.25h1.5a2.75 2.75 0 0 0-2.75-2.75zm-.036 0h.036v-1.5h-.036zm-1.044.563a1.25 1.25 0 0 1 1.044-.563v-1.5a2.75 2.75 0 0 0-2.297 1.238zm-4.03 6.125 4.03-6.125-1.253-.825-4.03 6.125z"/></svg>
